documentation/public/assets/images/radio-button-field.svg

<svg width="158" height="24" viewBox="0 0 158 24" fill="none" xmlns="http://www.w3.org/2000/svg">
<circle cx="8" cy="12" r="5.5" stroke="#0F67F5" stroke-width="5"/>
<path d="M25.4091 18V6.36364H29.3409C30.25 6.36364 30.9962 6.51894 31.5795 6.82955C32.1629 7.13636 32.5947 7.55871 32.875 8.09659C33.1553 8.63447 33.2955 9.24621 33.2955 9.93182C33.2955 10.6174 33.1553 11.2254 32.875 11.7557C32.5947 12.286 32.1648 12.7027 31.5852 13.0057C31.0057 13.3049 30.2652 13.4545 29.3636 13.4545H26.1818V12.1818H29.3182C29.9394 12.1818 30.4394 12.0909 30.8182 11.9091C31.2008 11.7273 31.4773 11.4697 31.6477 11.1364C31.822 10.7992 31.9091 10.3977 31.9091 9.93182C31.9091 9.46591 31.822 9.05871 31.6477 8.71023C31.4735 8.36174 31.1951 8.0928 30.8125 7.90341C30.4299 7.71023 29.9242 7.61364 29.2955 7.61364H26.8182V18H25.4091ZM30.8864 12.7727L33.75 18H32.1136L29.2955 12.7727H30.8864ZM38.0298 18.2045C37.4768 18.2045 36.9749 18.1004 36.5241 17.892C36.0734 17.6799 35.7154 17.375 35.4503 16.9773C35.1851 16.5758 35.0526 16.0909 35.0526 15.5227C35.0526 15.0227 35.151 14.6174 35.348 14.3068C35.545 13.9924 35.8082 13.7462 36.1378 13.5682C36.4673 13.3902 36.831 13.2576 37.2287 13.1705C37.6302 13.0795 38.0336 13.0076 38.4389 12.9545C38.9692 12.8864 39.3991 12.8352 39.7287 12.8011C40.062 12.7633 40.3045 12.7008 40.456 12.6136C40.6113 12.5265 40.6889 12.375 40.6889 12.1591V12.1136C40.6889 11.553 40.5355 11.1174 40.2287 10.8068C39.9257 10.4962 39.4654 10.3409 38.848 10.3409C38.2079 10.3409 37.706 10.4811 37.3423 10.7614C36.9787 11.0417 36.723 11.3409 36.5753 11.6591L35.3026 11.2045C35.5298 10.6742 35.8329 10.2614 36.2116 9.96591C36.5942 9.66667 37.0109 9.45833 37.4616 9.34091C37.9162 9.2197 38.3632 9.15909 38.8026 9.15909C39.0829 9.15909 39.4048 9.19318 39.7685 9.26136C40.1359 9.32576 40.4901 9.46023 40.831 9.66477C41.1757 9.86932 41.4616 10.178 41.6889 10.5909C41.9162 11.0038 42.0298 11.5568 42.0298 12.25V18H40.6889V16.8182H40.6207C40.5298 17.0076 40.3783 17.2102 40.1662 17.4261C39.9541 17.642 39.6719 17.8258 39.3196 17.9773C38.9673 18.1288 38.5374 18.2045 38.0298 18.2045ZM38.2344 17C38.7647 17 39.2116 16.8958 39.5753 16.6875C39.9427 16.4792 40.2192 16.2102 40.4048 15.8807C40.5942 15.5511 40.6889 15.2045 40.6889 14.8409V13.6136C40.6321 13.6818 40.5071 13.7443 40.3139 13.8011C40.1245 13.8542 39.9048 13.9015 39.6548 13.9432C39.4086 13.9811 39.1681 14.0152 38.9332 14.0455C38.7022 14.072 38.5147 14.0947 38.3707 14.1136C38.0223 14.1591 37.6965 14.233 37.3935 14.3352C37.0942 14.4337 36.8518 14.5833 36.6662 14.7841C36.4844 14.9811 36.3935 15.25 36.3935 15.5909C36.3935 16.0568 36.5658 16.4091 36.9105 16.6477C37.259 16.8826 37.7003 17 38.2344 17ZM47.7727 18.1818C47.0455 18.1818 46.4034 17.9981 45.8466 17.6307C45.2898 17.2595 44.8542 16.7367 44.5398 16.0625C44.2254 15.3845 44.0682 14.5833 44.0682 13.6591C44.0682 12.7424 44.2254 11.947 44.5398 11.2727C44.8542 10.5985 45.2917 10.0777 45.8523 9.71023C46.4129 9.3428 47.0606 9.15909 47.7955 9.15909C48.3636 9.15909 48.8125 9.25379 49.142 9.44318C49.4754 9.62879 49.7292 9.84091 49.9034 10.0795C50.0814 10.3144 50.2197 10.5076 50.3182 10.6591H50.4318V6.36364H51.7727V18H50.4773V16.6591H50.3182C50.2197 16.8182 50.0795 17.0189 49.8977 17.2614C49.7159 17.5 49.4564 17.714 49.1193 17.9034C48.7822 18.089 48.3333 18.1818 47.7727 18.1818ZM47.9545 16.9773C48.4924 16.9773 48.947 16.8371 49.3182 16.5568C49.6894 16.2727 49.9716 15.8807 50.1648 15.3807C50.358 14.8769 50.4545 14.2955 50.4545 13.6364C50.4545 12.9848 50.3598 12.4148 50.1705 11.9261C49.9811 11.4337 49.7008 11.0511 49.3295 10.7784C48.9583 10.5019 48.5 10.3636 47.9545 10.3636C47.3864 10.3636 46.9129 10.5095 46.5341 10.8011C46.1591 11.089 45.8769 11.4811 45.6875 11.9773C45.5019 12.4697 45.4091 13.0227 45.4091 13.6364C45.4091 14.2576 45.5038 14.822 45.6932 15.3295C45.8864 15.8333 46.1705 16.2348 46.5455 16.5341C46.9242 16.8295 47.3939 16.9773 47.9545 16.9773ZM54.4148 18V9.27273H55.7557V18H54.4148ZM55.0966 7.81818C54.8352 7.81818 54.6098 7.72917 54.4205 7.55114C54.2348 7.37311 54.142 7.15909 54.142 6.90909C54.142 6.65909 54.2348 6.44508 54.4205 6.26705C54.6098 6.08902 54.8352 6 55.0966 6C55.358 6 55.5814 6.08902 55.767 6.26705C55.9564 6.44508 56.0511 6.65909 56.0511 6.90909C56.0511 7.15909 55.9564 7.37311 55.767 7.55114C55.5814 7.72917 55.358 7.81818 55.0966 7.81818ZM61.7571 18.1818C60.9692 18.1818 60.2779 17.9943 59.6832 17.6193C59.0923 17.2443 58.6302 16.7197 58.2969 16.0455C57.9673 15.3712 57.8026 14.5833 57.8026 13.6818C57.8026 12.7727 57.9673 11.9792 58.2969 11.3011C58.6302 10.6231 59.0923 10.0966 59.6832 9.72159C60.2779 9.34659 60.9692 9.15909 61.7571 9.15909C62.545 9.15909 63.2344 9.34659 63.8253 9.72159C64.42 10.0966 64.8821 10.6231 65.2116 11.3011C65.545 11.9792 65.7116 12.7727 65.7116 13.6818C65.7116 14.5833 65.545 15.3712 65.2116 16.0455C64.8821 16.7197 64.42 17.2443 63.8253 17.6193C63.2344 17.9943 62.545 18.1818 61.7571 18.1818ZM61.7571 16.9773C62.3556 16.9773 62.848 16.8239 63.2344 16.517C63.6207 16.2102 63.9067 15.8068 64.0923 15.3068C64.2779 14.8068 64.3707 14.2652 64.3707 13.6818C64.3707 13.0985 64.2779 12.5549 64.0923 12.0511C63.9067 11.5473 63.6207 11.1402 63.2344 10.8295C62.848 10.5189 62.3556 10.3636 61.7571 10.3636C61.1586 10.3636 60.6662 10.5189 60.2798 10.8295C59.8935 11.1402 59.6075 11.5473 59.4219 12.0511C59.2363 12.5549 59.1435 13.0985 59.1435 13.6818C59.1435 14.2652 59.2363 14.8068 59.4219 15.3068C59.6075 15.8068 59.8935 16.2102 60.2798 16.517C60.6662 16.8239 61.1586 16.9773 61.7571 16.9773ZM72.4403 18V6.36364H73.7812V10.6591H73.8949C73.9934 10.5076 74.1297 10.3144 74.304 10.0795C74.482 9.84091 74.7358 9.62879 75.0653 9.44318C75.3987 9.25379 75.8494 9.15909 76.4176 9.15909C77.1525 9.15909 77.8002 9.3428 78.3608 9.71023C78.9214 10.0777 79.3589 10.5985 79.6733 11.2727C79.9877 11.947 80.1449 12.7424 80.1449 13.6591C80.1449 14.5833 79.9877 15.3845 79.6733 16.0625C79.3589 16.7367 78.9233 17.2595 78.3665 17.6307C77.8097 17.9981 77.1676 18.1818 76.4403 18.1818C75.8797 18.1818 75.4309 18.089 75.0938 17.9034C74.7566 17.714 74.4972 17.5 74.3153 17.2614C74.1335 17.0189 73.9934 16.8182 73.8949 16.6591H73.7358V18H72.4403ZM73.7585 13.6364C73.7585 14.2955 73.8551 14.8769 74.0483 15.3807C74.2415 15.8807 74.5237 16.2727 74.8949 16.5568C75.2661 16.8371 75.7206 16.9773 76.2585 16.9773C76.8191 16.9773 77.2869 16.8295 77.6619 16.5341C78.0407 16.2348 78.3248 15.8333 78.5142 15.3295C78.7074 14.822 78.804 14.2576 78.804 13.6364C78.804 13.0227 78.7093 12.4697 78.5199 11.9773C78.3343 11.4811 78.0521 11.089 77.6733 10.8011C77.2983 10.5095 76.8267 10.3636 76.2585 10.3636C75.7131 10.3636 75.2547 10.5019 74.8835 10.7784C74.5123 11.0511 74.232 11.4337 74.0426 11.9261C73.8532 12.4148 73.7585 12.9848 73.7585 13.6364ZM87.696 14.4318V9.27273H89.0369V18H87.696V16.5227H87.6051C87.4006 16.9659 87.0824 17.3428 86.6506 17.6534C86.2188 17.9602 85.6733 18.1136 85.0142 18.1136C84.4688 18.1136 83.9839 17.9943 83.5597 17.7557C83.1354 17.5133 82.8021 17.1496 82.5597 16.6648C82.3172 16.1761 82.196 15.5606 82.196 14.8182V9.27273H83.5369V14.7273C83.5369 15.3636 83.715 15.8712 84.071 16.25C84.4309 16.6288 84.8892 16.8182 85.446 16.8182C85.7794 16.8182 86.1184 16.733 86.4631 16.5625C86.8116 16.392 87.1032 16.1307 87.3381 15.7784C87.5767 15.4261 87.696 14.9773 87.696 14.4318ZM95.2884 9.27273V10.4091H90.7656V9.27273H95.2884ZM92.0838 7.18182H93.4247V15.5C93.4247 15.8788 93.4796 16.1629 93.5895 16.3523C93.7031 16.5379 93.8471 16.6629 94.0213 16.7273C94.1993 16.7879 94.3868 16.8182 94.5838 16.8182C94.7315 16.8182 94.8527 16.8106 94.9474 16.7955C95.0421 16.7765 95.1179 16.7614 95.1747 16.75L95.4474 17.9545C95.3565 17.9886 95.2296 18.0227 95.0668 18.0568C94.9039 18.0947 94.6974 18.1136 94.4474 18.1136C94.0687 18.1136 93.6974 18.0322 93.3338 17.8693C92.974 17.7064 92.6747 17.4583 92.4361 17.125C92.2012 16.7917 92.0838 16.3712 92.0838 15.8636V7.18182ZM101.101 9.27273V10.4091H96.5781V9.27273H101.101ZM97.8963 7.18182H99.2372V15.5C99.2372 15.8788 99.2921 16.1629 99.402 16.3523C99.5156 16.5379 99.6596 16.6629 99.8338 16.7273C100.012 16.7879 100.199 16.8182 100.396 16.8182C100.544 16.8182 100.665 16.8106 100.76 16.7955C100.855 16.7765 100.93 16.7614 100.987 16.75L101.26 17.9545C101.169 17.9886 101.042 18.0227 100.879 18.0568C100.716 18.0947 100.51 18.1136 100.26 18.1136C99.8812 18.1136 99.5099 18.0322 99.1463 17.8693C98.7865 17.7064 98.4872 17.4583 98.2486 17.125C98.0137 16.7917 97.8963 16.3712 97.8963 15.8636V7.18182ZM106.57 18.1818C105.782 18.1818 105.09 17.9943 104.496 17.6193C103.905 17.2443 103.443 16.7197 103.109 16.0455C102.78 15.3712 102.615 14.5833 102.615 13.6818C102.615 12.7727 102.78 11.9792 103.109 11.3011C103.443 10.6231 103.905 10.0966 104.496 9.72159C105.09 9.34659 105.782 9.15909 106.57 9.15909C107.357 9.15909 108.047 9.34659 108.638 9.72159C109.232 10.0966 109.695 10.6231 110.024 11.3011C110.357 11.9792 110.524 12.7727 110.524 13.6818C110.524 14.5833 110.357 15.3712 110.024 16.0455C109.695 16.7197 109.232 17.2443 108.638 17.6193C108.047 17.9943 107.357 18.1818 106.57 18.1818ZM106.57 16.9773C107.168 16.9773 107.661 16.8239 108.047 16.517C108.433 16.2102 108.719 15.8068 108.905 15.3068C109.09 14.8068 109.183 14.2652 109.183 13.6818C109.183 13.0985 109.09 12.5549 108.905 12.0511C108.719 11.5473 108.433 11.1402 108.047 10.8295C107.661 10.5189 107.168 10.3636 106.57 10.3636C105.971 10.3636 105.479 10.5189 105.092 10.8295C104.706 11.1402 104.42 11.5473 104.234 12.0511C104.049 12.5549 103.956 13.0985 103.956 13.6818C103.956 14.2652 104.049 14.8068 104.234 15.3068C104.42 15.8068 104.706 16.2102 105.092 16.517C105.479 16.8239 105.971 16.9773 106.57 16.9773ZM113.912 12.75V18H112.571V9.27273H113.866V10.6364H113.98C114.185 10.1932 114.495 9.83712 114.912 9.56818C115.329 9.29545 115.866 9.15909 116.526 9.15909C117.116 9.15909 117.634 9.2803 118.077 9.52273C118.52 9.76136 118.865 10.125 119.111 10.6136C119.357 11.0985 119.48 11.7121 119.48 12.4545V18H118.139V12.5455C118.139 11.8598 117.961 11.3258 117.605 10.9432C117.249 10.5568 116.76 10.3636 116.139 10.3636C115.711 10.3636 115.329 10.4564 114.991 10.642C114.658 10.8277 114.395 11.0985 114.202 11.4545C114.009 11.8106 113.912 12.2424 113.912 12.75ZM130.317 9.27273V10.4091H125.612V9.27273H130.317ZM127.021 18V8.06818C127.021 7.56818 127.139 7.15151 127.374 6.81818C127.608 6.48485 127.913 6.23485 128.288 6.06818C128.663 5.90151 129.059 5.81818 129.476 5.81818C129.805 5.81818 130.074 5.8447 130.283 5.89773C130.491 5.95076 130.646 6 130.749 6.04545L130.362 7.20455C130.294 7.18182 130.199 7.15341 130.078 7.11932C129.961 7.08523 129.805 7.06818 129.612 7.06818C129.169 7.06818 128.849 7.17992 128.652 7.40341C128.459 7.62689 128.362 7.95455 128.362 8.38636V18H127.021ZM132.196 18V9.27273H133.537V18H132.196ZM132.878 7.81818C132.616 7.81818 132.391 7.72917 132.202 7.55114C132.016 7.37311 131.923 7.15909 131.923 6.90909C131.923 6.65909 132.016 6.44508 132.202 6.26705C132.391 6.08902 132.616 6 132.878 6C133.139 6 133.363 6.08902 133.548 6.26705C133.738 6.44508 133.832 6.65909 133.832 6.90909C133.832 7.15909 133.738 7.37311 133.548 7.55114C133.363 7.72917 133.139 7.81818 132.878 7.81818ZM139.652 18.1818C138.811 18.1818 138.086 17.9962 137.476 17.625C136.87 17.25 136.402 16.7273 136.072 16.0568C135.747 15.3826 135.584 14.5985 135.584 13.7045C135.584 12.8106 135.747 12.0227 136.072 11.3409C136.402 10.6553 136.86 10.1212 137.447 9.73864C138.038 9.35227 138.728 9.15909 139.516 9.15909C139.97 9.15909 140.419 9.23485 140.862 9.38636C141.305 9.53788 141.709 9.78409 142.072 10.125C142.436 10.4621 142.726 10.9091 142.942 11.4659C143.158 12.0227 143.266 12.7083 143.266 13.5227V14.0909H136.538V12.9318H141.902C141.902 12.4394 141.804 12 141.607 11.6136C141.413 11.2273 141.137 10.9223 140.777 10.6989C140.421 10.4754 140 10.3636 139.516 10.3636C138.982 10.3636 138.519 10.4962 138.129 10.7614C137.743 11.0227 137.446 11.3636 137.237 11.7841C137.029 12.2045 136.925 12.6553 136.925 13.1364V13.9091C136.925 14.5682 137.038 15.1269 137.266 15.5852C137.497 16.0398 137.817 16.3864 138.226 16.625C138.635 16.8598 139.11 16.9773 139.652 16.9773C140.004 16.9773 140.322 16.928 140.607 16.8295C140.894 16.7273 141.143 16.5758 141.351 16.375C141.559 16.1705 141.72 15.9167 141.834 15.6136L143.129 15.9773C142.993 16.4167 142.764 16.803 142.442 17.1364C142.12 17.4659 141.722 17.7235 141.249 17.9091C140.775 18.0909 140.243 18.1818 139.652 18.1818ZM146.646 6.36364V18H145.305V6.36364H146.646ZM152.398 18.1818C151.67 18.1818 151.028 17.9981 150.472 17.6307C149.915 17.2595 149.479 16.7367 149.165 16.0625C148.85 15.3845 148.693 14.5833 148.693 13.6591C148.693 12.7424 148.85 11.947 149.165 11.2727C149.479 10.5985 149.917 10.0777 150.477 9.71023C151.038 9.3428 151.686 9.15909 152.42 9.15909C152.989 9.15909 153.438 9.25379 153.767 9.44318C154.1 9.62879 154.354 9.84091 154.528 10.0795C154.706 10.3144 154.845 10.5076 154.943 10.6591H155.057V6.36364H156.398V18H155.102V16.6591H154.943C154.845 16.8182 154.705 17.0189 154.523 17.2614C154.341 17.5 154.081 17.714 153.744 17.9034C153.407 18.089 152.958 18.1818 152.398 18.1818ZM152.58 16.9773C153.117 16.9773 153.572 16.8371 153.943 16.5568C154.314 16.2727 154.597 15.8807 154.79 15.3807C154.983 14.8769 155.08 14.2955 155.08 13.6364C155.08 12.9848 154.985 12.4148 154.795 11.9261C154.606 11.4337 154.326 11.0511 153.955 10.7784C153.583 10.5019 153.125 10.3636 152.58 10.3636C152.011 10.3636 151.538 10.5095 151.159 10.8011C150.784 11.089 150.502 11.4811 150.312 11.9773C150.127 12.4697 150.034 13.0227 150.034 13.6364C150.034 14.2576 150.129 14.822 150.318 15.3295C150.511 15.8333 150.795 16.2348 151.17 16.5341C151.549 16.8295 152.019 16.9773 152.58 16.9773Z" fill="#333333"/>
</svg>

<svg width="158" height="24" fill="none" xmlns="http://www.w3.org/2000/svg"><circle cx="8" cy="12" r="5.5" stroke="#0F67F5" stroke-width="5"/><path d="M25.4 18V6.36h3.94c.91 0 1.66.16 2.24.47.58.3 1.01.73 1.3 1.27.28.53.42 1.15.42 1.83 0 .69-.14 1.3-.42 1.83-.29.53-.72.94-1.3 1.25-.57.3-1.31.44-2.22.44h-3.18v-1.27h3.14c.62 0 1.12-.09 1.5-.27.38-.18.66-.44.83-.77.17-.34.26-.74.26-1.2 0-.47-.09-.88-.26-1.23a1.78 1.78 0 0 0-.84-.8c-.38-.2-.89-.3-1.51-.3h-2.48V18H25.4Zm5.49-5.23L33.75 18h-1.64l-2.81-5.23h1.59Zm7.14 5.43c-.55 0-1.06-.1-1.5-.3a2.63 2.63 0 0 1-1.08-.92c-.26-.4-.4-.89-.4-1.46 0-.5.1-.9.3-1.21.2-.32.46-.56.79-.74.33-.18.7-.31 1.09-.4.4-.1.8-.16 1.2-.22l1.3-.15c.33-.04.57-.1.73-.19.15-.08.23-.23.23-.45v-.05c0-.56-.15-1-.46-1.3-.3-.31-.76-.47-1.38-.47a2.39 2.39 0 0 0-2.27 1.32l-1.28-.46a3.06 3.06 0 0 1 2.16-1.86 5.2 5.2 0 0 1 2.3-.08c.38.07.73.2 1.07.4.35.2.63.52.86.93.23.41.34.97.34 1.66V18h-1.34v-1.18h-.07a2.62 2.62 0 0 1-1.3 1.16c-.35.15-.78.22-1.29.22Zm.2-1.2c.53 0 .98-.1 1.35-.31a2.13 2.13 0 0 0 1.1-1.85v-1.23c-.05.07-.17.13-.37.2-.19.04-.4.1-.66.13a29.81 29.81 0 0 1-1.28.17c-.35.05-.67.12-.98.23-.3.1-.54.24-.72.44-.19.2-.28.47-.28.81 0 .47.18.82.52 1.06.35.23.79.35 1.32.35Zm9.54 1.18a3.42 3.42 0 0 1-3.23-2.12 5.67 5.67 0 0 1-.47-2.4c0-.92.16-1.71.47-2.39a3.46 3.46 0 0 1 3.26-2.11c.56 0 1.01.1 1.34.28.34.19.59.4.76.64.18.23.32.43.42.58h.11v-4.3h1.34V18h-1.3v-1.34h-.15l-.42.6a2.5 2.5 0 0 1-.78.64 2.8 2.8 0 0 1-1.35.28Zm.18-1.2c.54 0 1-.14 1.37-.42.37-.29.65-.68.84-1.18.2-.5.3-1.08.3-1.74 0-.66-.1-1.23-.29-1.71a2.24 2.24 0 0 0-2.22-1.56c-.56 0-1.04.14-1.42.43-.37.29-.65.68-.84 1.18a5.03 5.03 0 0 0 0 3.35c.2.5.48.9.86 1.2.37.3.84.45 1.4.45ZM54.41 18V9.27h1.35V18H54.4Zm.69-10.18a.95.95 0 0 1-.68-.27.86.86 0 0 1-.28-.64c0-.25.1-.46.28-.64A.95.95 0 0 1 55.1 6c.26 0 .48.09.67.27.19.18.28.39.28.64s-.1.46-.28.64a.93.93 0 0 1-.67.27Zm6.66 10.36a3.8 3.8 0 0 1-2.08-.56 3.84 3.84 0 0 1-1.38-1.57 5.32 5.32 0 0 1-.5-2.37c0-.9.17-1.7.5-2.38.33-.68.8-1.2 1.38-1.58a3.8 3.8 0 0 1 2.08-.56c.79 0 1.47.19 2.07.56.59.38 1.05.9 1.38 1.58.34.68.5 1.47.5 2.38 0 .9-.16 1.7-.5 2.37-.33.67-.79 1.2-1.38 1.57-.6.37-1.28.56-2.07.56Zm0-1.2c.6 0 1.09-.16 1.47-.46.4-.31.68-.71.86-1.21a4.8 4.8 0 0 0 0-3.26 2.7 2.7 0 0 0-.86-1.22 2.28 2.28 0 0 0-1.47-.47c-.6 0-1.1.16-1.48.47-.39.31-.67.72-.86 1.22a4.8 4.8 0 0 0 0 3.26c.19.5.47.9.86 1.2.39.31.88.47 1.48.47ZM72.44 18V6.36h1.34v4.3h.11l.41-.58c.18-.24.44-.45.77-.64s.78-.28 1.35-.28a3.46 3.46 0 0 1 3.25 2.11c.32.68.47 1.47.47 2.39 0 .92-.15 1.72-.47 2.4a3.42 3.42 0 0 1-3.23 2.12c-.56 0-1-.1-1.35-.28a2.5 2.5 0 0 1-.77-.64 8.62 8.62 0 0 1-.43-.6h-.15V18h-1.3Zm1.32-4.36c0 .66.1 1.24.29 1.74.2.5.47.9.84 1.18.38.28.83.42 1.37.42a2.2 2.2 0 0 0 1.4-.45c.38-.3.66-.7.85-1.2.2-.5.3-1.07.3-1.7 0-.6-.1-1.16-.29-1.65-.19-.5-.47-.9-.85-1.18-.37-.3-.84-.44-1.41-.44a2.24 2.24 0 0 0-2.22 1.57 4.72 4.72 0 0 0-.28 1.7Zm13.94.8V9.26h1.34V18H87.7v-1.48h-.1a2.74 2.74 0 0 1-2.59 1.59 3 3 0 0 1-1.45-.35 2.5 2.5 0 0 1-1-1.1 4.14 4.14 0 0 1-.36-1.84V9.27h1.34v5.46c0 .63.17 1.14.53 1.52.36.38.82.57 1.38.57a2.28 2.28 0 0 0 2.25-2.39Zm7.59-5.17v1.14h-4.52V9.27h4.52Zm-3.2-2.09h1.33v8.32c0 .38.06.66.17.85.11.19.26.31.43.38.18.06.37.09.56.09.15 0 .27 0 .37-.02l.22-.05.28 1.2a2.73 2.73 0 0 1-1 .16 2.7 2.7 0 0 1-1.12-.24 2.21 2.21 0 0 1-.9-.75 2.14 2.14 0 0 1-.35-1.26V7.18Zm9.01 2.1v1.13h-4.52V9.27h4.52Zm-3.2-2.1h1.34v8.32c0 .38.05.66.16.85.12.19.26.31.43.38.18.06.37.09.57.09.14 0 .27 0 .36-.02l.23-.05.27 1.2a2.73 2.73 0 0 1-1 .16 2.7 2.7 0 0 1-1.11-.24 2.21 2.21 0 0 1-.9-.75 2.14 2.14 0 0 1-.35-1.26V7.18Zm8.67 11a3.8 3.8 0 0 1-2.07-.56c-.6-.38-1.06-.9-1.4-1.57a5.33 5.33 0 0 1-.48-2.37c0-.9.16-1.7.49-2.38.33-.68.8-1.2 1.39-1.58a3.8 3.8 0 0 1 2.07-.56c.79 0 1.48.19 2.07.56.6.38 1.05.9 1.38 1.58.34.68.5 1.47.5 2.38 0 .9-.16 1.7-.5 2.37-.33.67-.79 1.2-1.38 1.57-.6.37-1.28.56-2.07.56Zm0-1.2c.6 0 1.1-.16 1.48-.46.38-.31.67-.71.86-1.21a4.76 4.76 0 0 0-.01-3.26c-.18-.5-.47-.91-.85-1.22a2.28 2.28 0 0 0-1.48-.47c-.6 0-1.1.16-1.48.47-.38.31-.67.72-.86 1.22a4.7 4.7 0 0 0-.27 1.63c0 .59.09 1.13.27 1.63.19.5.48.9.86 1.2.39.31.88.47 1.48.47Zm7.34-4.23V18h-1.34V9.27h1.3v1.37h.11c.2-.45.52-.8.93-1.07.42-.27.96-.41 1.62-.41.59 0 1.1.12 1.55.36.44.24.78.6 1.03 1.1.25.48.37 1.1.37 1.83V18h-1.34v-5.45c0-.69-.18-1.22-.53-1.6a1.9 1.9 0 0 0-1.47-.59c-.43 0-.81.1-1.15.28a2 2 0 0 0-.79.81c-.2.36-.29.8-.29 1.3Zm16.4-3.48v1.14h-4.7V9.27h4.7ZM127.03 18V8.07c0-.5.12-.92.35-1.25.24-.34.54-.59.92-.75a3.37 3.37 0 0 1 2.46-.02l-.39 1.15a6.6 6.6 0 0 0-.28-.08 1.72 1.72 0 0 0-.47-.05c-.44 0-.76.11-.96.33-.2.23-.29.55-.29.99V18h-1.34Zm5.18 0V9.27h1.34V18h-1.34Zm.68-10.18a.95.95 0 0 1-.68-.27.86.86 0 0 1-.28-.64c0-.25.1-.46.28-.64a.95.95 0 0 1 .68-.27c.26 0 .48.09.67.27.19.18.28.39.28.64s-.1.46-.28.64a.93.93 0 0 1-.67.27Zm6.77 10.36a3.74 3.74 0 0 1-3.58-2.13 5.36 5.36 0 0 1-.49-2.35c0-.89.17-1.68.5-2.36a3.7 3.7 0 0 1 3.44-2.18c.45 0 .9.07 1.34.23a3.33 3.33 0 0 1 2.08 2.08c.22.55.33 1.24.33 2.05v.57h-6.73v-1.16h5.36c0-.5-.1-.93-.3-1.32a2.23 2.23 0 0 0-2.08-1.25c-.54 0-1 .14-1.4.4-.38.26-.67.6-.88 1.02a3 3 0 0 0-.31 1.36v.77c0 .66.1 1.22.34 1.68a2.48 2.48 0 0 0 2.38 1.39c.35 0 .67-.05.96-.15.28-.1.53-.25.74-.45.2-.2.37-.46.48-.77l1.3.37a2.99 2.99 0 0 1-1.89 1.93c-.47.18-1 .27-1.59.27Zm7-11.82V18h-1.34V6.36h1.34Zm5.75 11.82a3.41 3.41 0 0 1-3.24-2.12 5.66 5.66 0 0 1-.47-2.4c0-.92.16-1.71.47-2.39a3.47 3.47 0 0 1 3.25-2.11c.58 0 1.03.1 1.36.28.33.19.58.4.76.64.18.23.31.43.41.58h.12v-4.3h1.34V18h-1.3v-1.34h-.16c-.1.16-.23.36-.42.6a2.5 2.5 0 0 1-.78.64 2.8 2.8 0 0 1-1.34.28Zm.18-1.2c.54 0 1-.14 1.36-.42.37-.29.66-.68.85-1.18.2-.5.29-1.08.29-1.74 0-.66-.1-1.23-.29-1.71-.18-.5-.46-.88-.83-1.15a2.24 2.24 0 0 0-1.38-.42c-.57 0-1.04.15-1.42.44a2.6 2.6 0 0 0-.85 1.18 4.77 4.77 0 0 0-.28 1.66c0 .62.1 1.18.29 1.69.2.5.47.9.85 1.2.38.3.85.45 1.41.45Z" fill="#333"/></svg>
